symbols/web/flood/materialsymbolsrounded/flood_grad200_40px.svg

<svg xmlns="http://www.w3.org/2000/svg" height="40" width="40"><path d="M13.833 38.667q-2.416 0-3.583-.917-1.167-.917-2.625-.917-1.042 0-1.896.521-.854.521-2.021.938-.833.291-1.52-.23-.688-.52-.688-1.479 0-.5.354-1t.979-.75q1.042-.333 1.959-.916.916-.584 2.833-.584 2.417 0 3.5.917 1.083.917 2.708.917 1.584 0 2.667-.917 1.083-.917 3.5-.917t3.542.917q1.125.917 2.666.917 1.584 0 2.667-1.063 1.083-1.062 3.5-1.062 1.917 0 2.854.687.938.688 1.938 1.104.625.25 1 .729.375.48.375 1.021 0 1-.709 1.5-.708.5-1.541.167-1.167-.458-2.021-1.083-.854-.625-1.896-.625-1.458 0-2.625 1.062-1.167 1.063-3.542 1.063-2.458 0-3.604-.917T20 36.833q-1.458 0-2.625.917t-3.542.917ZM3.75 29.625q-.875.333-1.562-.187-.688-.521-.688-1.563 0-.5.354-.979t.979-.729q1.042-.334 2-.917.959-.583 2.834-.583.458 0 .937.041.479.042.854.167l-1.875-6.75L6 20.042q-.458.541-1.167.625-.708.083-1.25-.375-.583-.459-.687-1.188-.104-.729.396-1.312l11.166-13.5q.75-.875 1.813-1.167 1.062-.292 2.104.083L34.75 9.333q.708.292.979.938.271.646.021 1.354-.25.667-.917.979-.666.313-1.333.063l-2.25-.834 3.458 12.917q.625.292 1.23.708.604.417 1.229.709.625.291 1 .75.375.458.375 1 0 1.041-.709 1.521-.708.479-1.541.145-1.167-.458-2.021-1.083-.854-.625-1.896-.625-1.458 0-2.625 1.063Q28.583 30 26.208 30q-2.458 0-3.604-.917-1.146-.916-2.604-.916-1.458 0-2.625.916-1.167.917-3.542.917-2.458 0-3.583-.917-1.125-.916-2.625-.916-1.042 0-1.896.5-.854.5-1.979.958ZM13.875 26.5q1.208 0 2.292-.75 1.083-.75 2.333-.917l-2-7.291 6.708-1.792 2.834 10.792q1.541.041 2.5-.875.958-.917 2.458-1.125l-3.833-14.209-10-3.833-6.834 8.333 3.125 11.625q.125.042.209.042h.208Zm6.833-9.917Z"/></svg>

<svg xmlns="http://www.w3.org/2000/svg" height="40" width="40"><path d="M13.833 38.667Q11.417 38.667 10.25 37.75Q9.083 36.833 7.625 36.833Q6.583 36.833 5.729 37.354Q4.875 37.875 3.708 38.292Q2.875 38.583 2.188 38.062Q1.5 37.542 1.5 36.583Q1.5 36.083 1.854 35.583Q2.208 35.083 2.833 34.833Q3.875 34.5 4.792 33.917Q5.708 33.333 7.625 33.333Q10.042 33.333 11.125 34.25Q12.208 35.167 13.833 35.167Q15.417 35.167 16.5 34.25Q17.583 33.333 20 33.333Q22.417 33.333 23.542 34.25Q24.667 35.167 26.208 35.167Q27.792 35.167 28.875 34.104Q29.958 33.042 32.375 33.042Q34.292 33.042 35.229 33.729Q36.167 34.417 37.167 34.833Q37.792 35.083 38.167 35.562Q38.542 36.042 38.542 36.583Q38.542 37.583 37.833 38.083Q37.125 38.583 36.292 38.25Q35.125 37.792 34.271 37.167Q33.417 36.542 32.375 36.542Q30.917 36.542 29.75 37.604Q28.583 38.667 26.208 38.667Q23.75 38.667 22.604 37.75Q21.458 36.833 20 36.833Q18.542 36.833 17.375 37.75Q16.208 38.667 13.833 38.667ZM3.75 29.625Q2.875 29.958 2.188 29.438Q1.5 28.917 1.5 27.875Q1.5 27.375 1.854 26.896Q2.208 26.417 2.833 26.167Q3.875 25.833 4.833 25.25Q5.792 24.667 7.667 24.667Q8.125 24.667 8.604 24.708Q9.083 24.75 9.458 24.875L7.583 18.125L6 20.042Q5.542 20.583 4.833 20.667Q4.125 20.75 3.583 20.292Q3 19.833 2.896 19.104Q2.792 18.375 3.292 17.792L14.458 4.292Q15.208 3.417 16.271 3.125Q17.333 2.833 18.375 3.208L34.75 9.333Q35.458 9.625 35.729 10.271Q36 10.917 35.75 11.625Q35.5 12.292 34.833 12.604Q34.167 12.917 33.5 12.667L31.25 11.833L34.708 24.75Q35.333 25.042 35.938 25.458Q36.542 25.875 37.167 26.167Q37.792 26.458 38.167 26.917Q38.542 27.375 38.542 27.917Q38.542 28.958 37.833 29.438Q37.125 29.917 36.292 29.583Q35.125 29.125 34.271 28.5Q33.417 27.875 32.375 27.875Q30.917 27.875 29.75 28.938Q28.583 30 26.208 30Q23.75 30 22.604 29.083Q21.458 28.167 20 28.167Q18.542 28.167 17.375 29.083Q16.208 30 13.833 30Q11.375 30 10.25 29.083Q9.125 28.167 7.625 28.167Q6.583 28.167 5.729 28.667Q4.875 29.167 3.75 29.625ZM13.875 26.5Q15.083 26.5 16.167 25.75Q17.25 25 18.5 24.833L16.5 17.542L23.208 15.75L26.042 26.542Q27.583 26.583 28.542 25.667Q29.5 24.75 31 24.542L27.167 10.333L17.167 6.5L10.333 14.833L13.458 26.458Q13.583 26.5 13.667 26.5Q13.75 26.5 13.875 26.5ZM20.708 16.583Q20.708 16.583 20.708 16.583Q20.708 16.583 20.708 16.583Q20.708 16.583 20.708 16.583Q20.708 16.583 20.708 16.583Q20.708 16.583 20.708 16.583Q20.708 16.583 20.708 16.583Q20.708 16.583 20.708 16.583Q20.708 16.583 20.708 16.583Q20.708 16.583 20.708 16.583Q20.708 16.583 20.708 16.583Z"/></svg>
